X:68
T:Varjele Hyvaa Isa  (God, protect the child)
M:2/4
L:1/16
Q:1/4=80
S:arr. Eira Mattsson (Washington DC Finlandia Foundation) ~1976
R:jenkka
K:Am
"Am" E2ED CCCB, | C2CB, A,2A,2 | "Dm" AAAG F2FE | D3C "E7" B,2B,2 | !
"Am"CCCD E2ED | CCCB, A,2A,B, | C2CC "E7" B,2B,B, | "Am" A,2A,2 A,2 z2 ||
